X:1
T:Deep Purple
C:Peter DeRose
M:4/4
L:1/4
Q:1/4=66
K:C
|G4|G F E D|C2 E2|G4|
A2 G2|F E D C|E4-|E4|
G2 c2|B A G F|E2 G2|c4|
B2 A2|G F E D|E2 C2|G4|]
